components/icon/svg/24/action_visibility.svg

<?xml version="1.0" encoding="UTF-8"?>
<svg width="24px" height="24px" viewBox="0 0 24 24" version="1.1" xmlns="http://www.w3.org/2000/svg" xmlns:xlink="http://www.w3.org/1999/xlink">
    <!-- Generator: Sketch 64 (93537) - https://sketch.com -->
    <title>ic-db_action_visibility_24</title>
    <desc>Created with Sketch.</desc>
    <g id="Symbols:Icon" stroke="none" stroke-width="1" fill="none" fill-rule="evenodd">
        <g id="24dp-Icon/Action/visibility" fill="#282D37">
            <path d="M12,5 C15.6875,5 18.4062,7.1875 21.7812,11.375 C21.9375,11.5625 22,11.7812 22,12 C22,12.2188 21.9375,12.4375 21.7812,12.625 C18.4062,16.8438 15.6875,19 12,19 C8.5312,19 6.0625,17.3125 2.2188,12.625 C2.0625,12.4375 2,12.2188 2,12 C2,11.7812 2.0625,11.5625 2.2188,11.375 C5.5938,7.1875 8.3125,5 12,5 Z M12,7 C9.4688,7 7.3125,8.4062 4.2812,12 C7.2188,15.5 9.25,16.9062 12,17 C14.5312,17 16.6875,15.5938 19.7188,12 C16.7812,8.5 14.75,7.0938 12,7 Z M12,9 C13.6562,9 15,10.3438 15,12 C15,13.6562 13.6562,15 12,15 C10.3438,15 9,13.6562 9,12 C9,10.3438 10.3438,9 12,9 Z M12,11 C11.4375,11 11,11.4688 11,12 C11,12.5625 11.4375,13.0312 12,13.0312 C12.5625,13.0312 13,12.5625 13,12 C13,11.4688 12.5625,11 12,11 Z" id="🎨-Color"></path>
        </g>
    </g>
</svg>

<svg width="24" height="24" xmlns="http://www.w3.org/2000/svg"><path d="M12 5c3.688 0 6.406 2.188 9.781 6.375A.955.955 0 0122 12a.955.955 0 01-.219.625C18.406 16.844 15.688 19 12 19c-3.469 0-5.938-1.688-9.781-6.375A.955.955 0 012 12c0-.219.063-.438.219-.625C5.594 7.187 8.313 5 12 5zm0 2c-2.531 0-4.688 1.406-7.719 5C7.22 15.5 9.25 16.906 12 17c2.531 0 4.688-1.406 7.719-5C16.78 8.5 14.75 7.094 12 7zm0 2a3 3 0 11-.002 6.002A3 3 0 0112 9zm0 2c-.563 0-1 .469-1 1 0 .563.438 1.031 1 1.031.563 0 1-.469 1-1.031 0-.531-.438-1-1-1z" fill="#282D37" fill-rule="evenodd"/></svg>
